src/assets/LinkedIn.svg

<svg viewBox="0 0 122.88 122.31" xmlns="http://www.w3.org/2000/svg"><g fill-rule="evenodd"><path d="m27.75 0h67.38a27.83 27.83 0 0 1 27.75 27.75v66.82a27.83 27.83 0 0 1 -27.75 27.74h-67.38a27.83 27.83 0 0 1 -27.75-27.74v-66.82a27.83 27.83 0 0 1 27.75-27.75z" fill="#0a66c2"/><path d="m49.19 47.41h15.53v8h.22c2.17-3.88 7.45-8 15.34-8 16.39 0 19.42 10.2 19.42 23.47v28.06h-16.19v-24.94c0-5.71-.12-13.06-8.42-13.06s-9.72 6.21-9.72 12.65v25.4h-16.18zm-9.19-15.62a8.42 8.42 0 1 1 -8.42-8.42 8.43 8.43 0 0 1 8.42 8.42zm-16.82 15.62h16.82v51.53h-16.82z" fill="#fff"/></g></svg>

<svg id="Layer_1" data-name="Layer 1" xmlns="http://www.w3.org/2000/svg" viewBox="0 0 122.88 122.31"><defs><style>.cls-1{fill:#0a66c2;}.cls-1,.cls-2{fill-rule:evenodd;}.cls-2{fill:#fff;}</style></defs><title>linkedin-app</title><path class="cls-1" d="M27.75,0H95.13a27.83,27.83,0,0,1,27.75,27.75V94.57a27.83,27.83,0,0,1-27.75,27.74H27.75A27.83,27.83,0,0,1,0,94.57V27.75A27.83,27.83,0,0,1,27.75,0Z"/><path class="cls-2" d="M49.19,47.41H64.72v8h.22c2.17-3.88,7.45-8,15.34-8,16.39,0,19.42,10.2,19.42,23.47V98.94H83.51V74c0-5.71-.12-13.06-8.42-13.06s-9.72,6.21-9.72,12.65v25.4H49.19V47.41ZM40,31.79a8.42,8.42,0,1,1-8.42-8.42A8.43,8.43,0,0,1,40,31.79ZM23.18,47.41H40V98.94H23.18V47.41Z"/></svg>
